X:1
T:Title
%%score { ( 1 3 ) | ( 2 4 ) }
L:1/8
M:6/4
K:Ab
V:1 treble nm="Grand Piano"
V:3 treble 
V:2 bass 
V:4 bass 
V:1
 z6 z4[Q:1/4=168] [CE]2 | [CA]4 [CA]2 [CA]4 [Ec][DB] | [CA]4 [CA]2 [CE]4 [CE]2 | z6 .c6 | %4
[M:5/4] B4 c2 B4 |[M:1/4] E2 |[M:6/4] [CA]4 [CA]2 [CA]4 [Ec][DB] | [CA]4 [CA]2 [A,CA]4 [CA]c | %8
 e4 e2 e3 c [EA]2 | [Ec]4 [DB]2 [CA]6 |[M:1/4] A2 |[M:6/4] B4 B2 B4 e2 | c4 cB A4 [EA]2 | %13
 B4 B2 B4 e2 | c3 B A2 B6 |[M:1/4] E2 |[M:6/4] [CA]4 [CA]2 [CA]4 [Ec][DB] | %17
 [CA]4 [CA]2 [A,CE]4 [CA]c | e4 e2 e3 c [EA]2 | [Ec]4 [DB]2 [CA]6 |] %20
V:2
 z6 z4 [A,,A,]2 | [A,,E,]4 [A,,E,]2 [A,,E,]4 [A,,A,]2 | [A,,E,]4 [A,,E,]2 [A,,A,]4 [A,,A,]2 | %3
 [A,,E,]4 [A,,E,]2 [A,,A,]3 [B,,G,] [C,A,]2 |[M:5/4] [E,G,E]4 [E,A,E]2 [E,G,E]4 |[M:1/4] [E,G,D]2 | %6
[M:6/4] [A,,E,]4 [A,,E,]2 [A,,E,]4 [A,,A,]2 | z6 z4 A,2[K:treble] | %8
 [A,CA]4 [A,DB]2 [A,CA]3 [A,E][K:bass] [C,A,]2 | [E,A,]4 [E,G,]2 [A,,A,]6 |[M:1/4] [A,C]2 | %11
[M:6/4] [E,G,E]4 [E,G,E]2 [E,G,E]4[K:treble] [G,B,E]2 | [A,E]4 ED [A,C]4[K:bass] [C,A,]2 | %13
 [E,G,E]4 [E,G,E]2 [E,G,E]4 [G,B,E]2 | E3- [G,B,E] [F,B,=D]2 [E,G,E]6 |[M:1/4] [E,G,D]2 | %16
[M:6/4] [A,,E,]4 [A,,E,]2 [A,,E,]4 [A,,A,]2 | z6 z4 A,2[K:treble] | %18
 [A,CA]4 [A,DB]2 [A,CA]3[K:bass] [A,E] [C,A,]2 | [E,A,]4 [E,G,]2 [A,,A,]6 |] %20
V:3
 x12 | x12 | x12 | [CA]4 [CA]2 E3- [EB] [EA]2 |[M:5/4] x10 |[M:1/4] x2 |[M:6/4] x12 | x12 | x12 | %9
 x12 |[M:1/4] x2 |[M:6/4] x12 | x12 | x12 | x12 |[M:1/4] x2 |[M:6/4] x12 | x12 | x12 | x12 |] %20
V:4
 x12 | x12 | x12 | x12 |[M:5/4] x10 |[M:1/4] x2 |[M:6/4] x12 | %7
 [A,,E,]4 [A,,E,]2 A,,4 z[K:treble] E | x10[K:bass] x2 | x12 |[M:1/4] x2 | %11
[M:6/4] x10[K:treble] x2 | z4 A,2 z6[K:bass] | x12 | .A,6 z6 |[M:1/4] x2 |[M:6/4] x12 | %17
 [A,,E,]4 [A,,E,]2 A,,4 z[K:treble] E | x9[K:bass] x3 | x12 |] %20

